Newaita-dark/apps/48/com.github.torikulhabib.nino.svg

<svg height="48" viewBox="0 0 48 48" width="48" xmlns="http://www.w3.org/2000/svg" xmlns:xlink="http://www.w3.org/1999/xlink"><linearGradient id="a" gradientTransform="matrix(.0125012 0 0 .093759 11.708933 20.158178)" gradientUnits="userSpaceOnUse" x1="254" x2="254" y1="233.5" y2="254.666672"><stop offset="0" stop-opacity=".27451"/><stop offset="1" stop-opacity="0"/></linearGradient><linearGradient id="b"><stop offset="0" stop-opacity=".313726"/><stop offset=".222222" stop-opacity=".27451"/><stop offset="1" stop-opacity="0"/></linearGradient><radialGradient id="c" cx="450.908936" cy="189.579361" gradientTransform="matrix(.00000026 -.117199 -.210958 -.00000015 56.365763 95.392999)" gradientUnits="userSpaceOnUse" r="21.166656" xlink:href="#b"/><radialGradient id="d" cx="450.908936" cy="189.579361" gradientTransform="matrix(-.00000026 .117199 .210958 .00000015 -26.597299 -11.291218)" gradientUnits="userSpaceOnUse" r="21.166656" xlink:href="#b"/><radialGradient id="e" cx="450.908936" cy="189.579361" gradientTransform="matrix(-.00000026 -.117199 .210958 -.00000015 -26.597299 95.392999)" gradientUnits="userSpaceOnUse" r="21.166656" xlink:href="#b"/><radialGradient id="f" cx="450.908936" cy="189.579361" gradientTransform="matrix(.00000026 .117199 -.210958 .00000015 56.36576 -11.291219)" gradientUnits="userSpaceOnUse" r="21.166656" xlink:href="#b"/><linearGradient id="g" gradientUnits="userSpaceOnUse" x1="14.88424125" x2="14.88424125" y1="42.0509015" y2="4.34415649995"><stop offset="0" stop-color="#66bb6a"/><stop offset="1" stop-color="#81c784"/></linearGradient><linearGradient id="h" gradientUnits="userSpaceOnUse" x1="32.74533075" x2="32.74533075" y1="42.0509015" y2="4.3441580001"><stop offset="0" stop-color="#f44336"/><stop offset="1" stop-color="#ef5350"/></linearGradient><radialGradient id="i" cx="450.908936" cy="189.579361" gradientTransform="matrix(.0000002 -.117199 -.158218 -.00000015 62.368034 95.392999)" gradientUnits="userSpaceOnUse" r="21.166656" xlink:href="#b"/><radialGradient id="j" cx="450.908936" cy="189.579361" gradientTransform="matrix(-.0000002 .117199 .158218 .00000015 3.122595 -11.291218)" gradientUnits="userSpaceOnUse" r="21.166656" xlink:href="#b"/><radialGradient id="k" cx="450.908936" cy="189.579361" gradientTransform="matrix(-.0000002 -.117199 .158218 -.00000015 3.122595 95.392999)" gradientUnits="userSpaceOnUse" r="21.166656" xlink:href="#b"/><radialGradient id="l" cx="450.908936" cy="189.579361" gradientTransform="matrix(.0000002 .117199 -.158218 .00000015 62.368032 -11.291219)" gradientUnits="userSpaceOnUse" r="21.166656" xlink:href="#b"/><path d="m12.898438 41.902344h3.96875v2.207031h-3.96875zm0 0" fill="url(#a)"/><path d="m16.867188 42.050781h3.972656v-1.984375h-3.972656zm0 0" fill="url(#c)"/><path d="m12.898438 42.050781h-3.96875v1.984375h3.96875zm0 0" fill="url(#d)"/><path d="m12.898438 42.050781h-3.96875v-1.984375h3.96875zm0 0" fill="url(#e)"/><path d="m16.867188 42.050781h3.972656v1.984375h-3.972656zm0 0" fill="url(#f)"/><path d="m14.816406 4.355469c-.625.019531-1.199218.335937-1.554687.847656l-8.933594 12.902344c-.90625 1.308593.03125 3.097656 1.625 3.097656h3.980469v18.863281c0 1.089844.882812 1.976563 1.972656 1.976563h5.953125c1.09375 0 1.976563-.886719 1.976563-1.976563v-18.863281h3.980468c1.589844 0 2.527344-1.789063 1.621094-3.097656l-8.929688-12.902344c-.382812-.550781-1.019531-.871094-1.691406-.847656zm0 0" fill="url(#g)"/><path d="m32.6875 42.039062c-.625-.019531-1.203125-.335937-1.558594-.847656l-8.929687-12.898437c-.90625-1.3125.03125-3.101563 1.625-3.101563h3.976562v-18.863281c.003907-1.089844.886719-1.972656 1.976563-1.972656h5.953125c1.09375 0 1.976562.882812 1.976562 1.972656v18.863281h3.976563c1.59375 0 2.53125 1.789063 1.625 3.101563l-8.929688 12.898437c-.382812.550782-1.019531.871094-1.691406.847656zm0 0" fill="url(#h)"/><path d="m14.878906 4.355469c-.023437 0-.042968 0-.0625 0-.625.019531-1.199218.335937-1.554687.847656l-8.933594 12.902344c-.324219.46875-.410156.996093-.316406 1.484375.046875-.257813.152343-.511719.316406-.753906l8.933594-12.898438c.355469-.511719.929687-.828125 1.554687-.847656.671875-.023438 1.308594.296875 1.691406.847656l8.929688 12.898438c.167969.242187.269531.496093.320312.753906.09375-.488282.003907-1.015625-.320312-1.484375l-8.929688-12.902344c-.371093-.535156-.980468-.851563-1.628906-.847656zm0 0" fill="#fff" fill-opacity=".392157"/><path d="m29.777344 4.355469c-1.089844 0-1.972656.882812-1.976563 1.972656v.734375c.003907-1.089844.886719-1.976562 1.976563-1.976562h5.953125c1.09375 0 1.976562.886718 1.976562 1.976562v-.734375c0-1.089844-.882812-1.972656-1.976562-1.972656zm-5.953125 20.835937c-1.300781 0-2.164063 1.195313-1.941407 2.347656.164063-.875.917969-1.613281 1.941407-1.613281h3.976562v-.734375zm13.882812 0v.734375h3.976563c1.023437 0 1.777344.738281 1.945312 1.613281.222656-1.152343-.640625-2.347656-1.945312-2.347656zm0 0" fill="#fff" fill-opacity=".313726"/><path d="m4.039062 18.734375c-.3125 1.1875.566407 2.46875 1.914063 2.46875h3.980469v-.980469h-3.980469c-.972656 0-1.703125-.671875-1.914063-1.488281zm21.691407 0c-.210938.816406-.941407 1.488281-1.914063 1.488281h-3.980468v.980469h3.980468c1.347656 0 2.226563-1.28125 1.914063-2.46875zm-15.796875 20.351563v.980468c0 1.089844.882812 1.976563 1.972656 1.976563h5.953125c1.09375 0 1.976563-.886719 1.976563-1.976563v-.980468c0 1.089843-.882813 1.972656-1.976563 1.972656h-5.953125c-1.089844 0-1.972656-.882813-1.972656-1.972656zm0 0" fill-opacity=".235294"/><path d="m21.910156 26.679688c-.136718.519531-.0625 1.101562.289063 1.613281l8.929687 12.898437c.355469.511719.933594.828125 1.558594.847656.671875.023438 1.308594-.296874 1.691406-.847656l8.929688-12.898437c.351562-.511719.425781-1.09375.292968-1.613281-.058593.214843-.152343.429687-.292968.628906l-8.929688 12.902344c-.382812.550781-1.019531.871093-1.691406.847656-.625-.023438-1.203125-.335938-1.558594-.847656l-8.929687-12.902344c-.136719-.199219-.234375-.414063-.289063-.628906zm0 0" fill-opacity=".235294"/><path d="m158.026576-168.546103c-6.66603.208314-12.790445 3.582991-16.58175 9.040804l-95.282568 137.611858c-9.665743 13.957001.333302 33.038512 17.331679 33.038512h42.454279v201.189121c0 11.62389 9.415767 21.08132 21.039657 21.08132h63.493937c11.665553 0 21.08132-9.45743 21.08132-21.08132v-201.189121h42.454279c16.956714 0 26.955759-19.081511 17.290016-33.038512l-95.240905-137.611858c-4.082944-5.874439-10.873962-9.29078-18.039944-9.040804zm0 0" fill="none" stroke="#212121" stroke-linecap="round" stroke-linejoin="round" stroke-width="3" transform="matrix(.093759 0 0 .093759 0 20.158175)"/><path d="m348.633374 233.373849c-6.66603-.208313-12.832108-3.582991-16.623413-9.040803l-95.240905-137.570196c-9.665743-13.998663.333302-33.080175 17.331679-33.080175h42.412616v-201.18912c.041663-11.62389 9.45743-21.039658 21.08132-21.039658h63.493937c11.665553 0 21.08132 9.415768 21.08132 21.039658v201.18912h42.412616c16.998377 0 26.997422 19.081512 17.331679 33.080175l-95.240905 137.570196c-4.082944 5.874439-10.873962 9.290779-18.039944 9.040803zm0 0" fill="none" stroke="#212121" stroke-linecap="round" stroke-linejoin="round" stroke-width="3" transform="matrix(.093759 0 0 .093759 0 20.158175)"/><path d="m32.746094 42.050781h2.976562v-1.984375h-2.976562zm0 0" fill="url(#i)"/><path d="m32.746094 42.050781h-2.976563v1.984375h2.976563zm0 0" fill="url(#j)"/><path d="m32.746094 42.050781h-2.976563v-1.984375h2.976563zm0 0" fill="url(#k)"/><path d="m32.746094 42.050781h2.976562v1.984375h-2.976562zm0 0" fill="url(#l)"/></svg>

<?xml version="1.0" encoding="UTF-8"?>
<svg xmlns="http://www.w3.org/2000/svg" xmlns:xlink="http://www.w3.org/1999/xlink" width="48px" height="48px" viewBox="0 0 48 48" version="1.1">
<defs>
<linearGradient id="linear0" gradientUnits="userSpaceOnUse" x1="254" y1="233.5" x2="254" y2="254.666672" gradientTransform="matrix(0.0125012,0,0,0.093759,11.708933,20.158178)">
<stop offset="0" style="stop-color:rgb(0%,0%,0%);stop-opacity:0.27451;"/>
<stop offset="1" style="stop-color:rgb(0%,0%,0%);stop-opacity:0;"/>
</linearGradient>
<radialGradient id="radial0" gradientUnits="userSpaceOnUse" cx="450.908936" cy="189.579361" fx="450.908936" fy="189.579361" r="21.166656" gradientTransform="matrix(0.000000261256,-0.117199,-0.210958,-0.000000152308,56.365763,95.392999)">
<stop offset="0" style="stop-color:rgb(0%,0%,0%);stop-opacity:0.313726;"/>
<stop offset="0.222222" style="stop-color:rgb(0%,0%,0%);stop-opacity:0.27451;"/>
<stop offset="1" style="stop-color:rgb(0%,0%,0%);stop-opacity:0;"/>
</radialGradient>
<radialGradient id="radial1" gradientUnits="userSpaceOnUse" cx="450.908936" cy="189.579361" fx="450.908936" fy="189.579361" r="21.166656" gradientTransform="matrix(-0.000000261256,0.117199,0.210958,0.000000152308,-26.597299,-11.291218)">
<stop offset="0" style="stop-color:rgb(0%,0%,0%);stop-opacity:0.313726;"/>
<stop offset="0.222222" style="stop-color:rgb(0%,0%,0%);stop-opacity:0.27451;"/>
<stop offset="1" style="stop-color:rgb(0%,0%,0%);stop-opacity:0;"/>
</radialGradient>
<radialGradient id="radial2" gradientUnits="userSpaceOnUse" cx="450.908936" cy="189.579361" fx="450.908936" fy="189.579361" r="21.166656" gradientTransform="matrix(-0.000000261256,-0.117199,0.210958,-0.000000152308,-26.597299,95.392999)">
<stop offset="0" style="stop-color:rgb(0%,0%,0%);stop-opacity:0.313726;"/>
<stop offset="0.222222" style="stop-color:rgb(0%,0%,0%);stop-opacity:0.27451;"/>
<stop offset="1" style="stop-color:rgb(0%,0%,0%);stop-opacity:0;"/>
</radialGradient>
<radialGradient id="radial3" gradientUnits="userSpaceOnUse" cx="450.908936" cy="189.579361" fx="450.908936" fy="189.579361" r="21.166656" gradientTransform="matrix(0.000000261256,0.117199,-0.210958,0.000000152308,56.36576,-11.291219)">
<stop offset="0" style="stop-color:rgb(0%,0%,0%);stop-opacity:0.313726;"/>
<stop offset="0.222222" style="stop-color:rgb(0%,0%,0%);stop-opacity:0.27451;"/>
<stop offset="1" style="stop-color:rgb(0%,0%,0%);stop-opacity:0;"/>
</radialGradient>
<linearGradient id="linear1" gradientUnits="userSpaceOnUse" x1="158.75" y1="233.5" x2="158.75" y2="-168.666672" gradientTransform="matrix(0.093759,0,0,0.093759,0,20.158175)">
<stop offset="0" style="stop-color:rgb(40.000001%,73.333335%,41.568628%);stop-opacity:1;"/>
<stop offset="1" style="stop-color:rgb(50.588238%,78.039217%,51.764709%);stop-opacity:1;"/>
</linearGradient>
<linearGradient id="linear2" gradientUnits="userSpaceOnUse" x1="349.25" y1="233.5" x2="349.25" y2="-168.666656" gradientTransform="matrix(0.093759,0,0,0.093759,0,20.158175)">
<stop offset="0" style="stop-color:rgb(95.686275%,26.274511%,21.176471%);stop-opacity:1;"/>
<stop offset="1" style="stop-color:rgb(93.725491%,32.549021%,31.37255%);stop-opacity:1;"/>
</linearGradient>
<radialGradient id="radial4" gradientUnits="userSpaceOnUse" cx="450.908936" cy="189.579361" fx="450.908936" fy="189.579361" r="21.166656" gradientTransform="matrix(0.000000195942,-0.117199,-0.158218,-0.000000152308,62.368034,95.392999)">
<stop offset="0" style="stop-color:rgb(0%,0%,0%);stop-opacity:0.313726;"/>
<stop offset="0.222222" style="stop-color:rgb(0%,0%,0%);stop-opacity:0.27451;"/>
<stop offset="1" style="stop-color:rgb(0%,0%,0%);stop-opacity:0;"/>
</radialGradient>
<radialGradient id="radial5" gradientUnits="userSpaceOnUse" cx="450.908936" cy="189.579361" fx="450.908936" fy="189.579361" r="21.166656" gradientTransform="matrix(-0.000000195942,0.117199,0.158218,0.000000152308,3.122595,-11.291218)">
<stop offset="0" style="stop-color:rgb(0%,0%,0%);stop-opacity:0.313726;"/>
<stop offset="0.222222" style="stop-color:rgb(0%,0%,0%);stop-opacity:0.27451;"/>
<stop offset="1" style="stop-color:rgb(0%,0%,0%);stop-opacity:0;"/>
</radialGradient>
<radialGradient id="radial6" gradientUnits="userSpaceOnUse" cx="450.908936" cy="189.579361" fx="450.908936" fy="189.579361" r="21.166656" gradientTransform="matrix(-0.000000195942,-0.117199,0.158218,-0.000000152308,3.122595,95.392999)">
<stop offset="0" style="stop-color:rgb(0%,0%,0%);stop-opacity:0.313726;"/>
<stop offset="0.222222" style="stop-color:rgb(0%,0%,0%);stop-opacity:0.27451;"/>
<stop offset="1" style="stop-color:rgb(0%,0%,0%);stop-opacity:0;"/>
</radialGradient>
<radialGradient id="radial7" gradientUnits="userSpaceOnUse" cx="450.908936" cy="189.579361" fx="450.908936" fy="189.579361" r="21.166656" gradientTransform="matrix(0.000000195942,0.117199,-0.158218,0.000000152308,62.368032,-11.291219)">
<stop offset="0" style="stop-color:rgb(0%,0%,0%);stop-opacity:0.313726;"/>
<stop offset="0.222222" style="stop-color:rgb(0%,0%,0%);stop-opacity:0.27451;"/>
<stop offset="1" style="stop-color:rgb(0%,0%,0%);stop-opacity:0;"/>
</radialGradient>
</defs>
<g id="surface1">
<path style=" stroke:none;fill-rule:nonzero;fill:url(#linear0);" d="M 12.898438 41.902344 L 16.867188 41.902344 L 16.867188 44.109375 L 12.898438 44.109375 Z M 12.898438 41.902344 "/>
<path style=" stroke:none;fill-rule:nonzero;fill:url(#radial0);" d="M 16.867188 42.050781 L 20.839844 42.050781 L 20.839844 40.066406 L 16.867188 40.066406 Z M 16.867188 42.050781 "/>
<path style=" stroke:none;fill-rule:nonzero;fill:url(#radial1);" d="M 12.898438 42.050781 L 8.929688 42.050781 L 8.929688 44.035156 L 12.898438 44.035156 Z M 12.898438 42.050781 "/>
<path style=" stroke:none;fill-rule:nonzero;fill:url(#radial2);" d="M 12.898438 42.050781 L 8.929688 42.050781 L 8.929688 40.066406 L 12.898438 40.066406 Z M 12.898438 42.050781 "/>
<path style=" stroke:none;fill-rule:nonzero;fill:url(#radial3);" d="M 16.867188 42.050781 L 20.839844 42.050781 L 20.839844 44.035156 L 16.867188 44.035156 Z M 16.867188 42.050781 "/>
<path style=" stroke:none;fill-rule:nonzero;fill:url(#linear1);" d="M 14.816406 4.355469 C 14.191406 4.375 13.617188 4.691406 13.261719 5.203125 L 4.328125 18.105469 C 3.421875 19.414062 4.359375 21.203125 5.953125 21.203125 L 9.933594 21.203125 L 9.933594 40.066406 C 9.933594 41.15625 10.816406 42.042969 11.90625 42.042969 L 17.859375 42.042969 C 18.953125 42.042969 19.835938 41.15625 19.835938 40.066406 L 19.835938 21.203125 L 23.816406 21.203125 C 25.40625 21.203125 26.34375 19.414062 25.4375 18.105469 L 16.507812 5.203125 C 16.125 4.652344 15.488281 4.332031 14.816406 4.355469 Z M 14.816406 4.355469 "/>
<path style=" stroke:none;fill-rule:nonzero;fill:url(#linear2);" d="M 32.6875 42.039062 C 32.0625 42.019531 31.484375 41.703125 31.128906 41.191406 L 22.199219 28.292969 C 21.292969 26.980469 22.230469 25.191406 23.824219 25.191406 L 27.800781 25.191406 L 27.800781 6.328125 C 27.804688 5.238281 28.6875 4.355469 29.777344 4.355469 L 35.730469 4.355469 C 36.824219 4.355469 37.707031 5.238281 37.707031 6.328125 L 37.707031 25.191406 L 41.683594 25.191406 C 43.277344 25.191406 44.214844 26.980469 43.308594 28.292969 L 34.378906 41.191406 C 33.996094 41.742188 33.359375 42.0625 32.6875 42.039062 Z M 32.6875 42.039062 "/>
<path style=" stroke:none;fill-rule:nonzero;fill:rgb(100%,100%,100%);fill-opacity:0.392157;" d="M 14.878906 4.355469 C 14.855469 4.355469 14.835938 4.355469 14.816406 4.355469 C 14.191406 4.375 13.617188 4.691406 13.261719 5.203125 L 4.328125 18.105469 C 4.003906 18.574219 3.917969 19.101562 4.011719 19.589844 C 4.058594 19.332031 4.164062 19.078125 4.328125 18.835938 L 13.261719 5.9375 C 13.617188 5.425781 14.191406 5.109375 14.816406 5.089844 C 15.488281 5.066406 16.125 5.386719 16.507812 5.9375 L 25.4375 18.835938 C 25.605469 19.078125 25.707031 19.332031 25.757812 19.589844 C 25.851562 19.101562 25.761719 18.574219 25.4375 18.105469 L 16.507812 5.203125 C 16.136719 4.667969 15.527344 4.351562 14.878906 4.355469 Z M 14.878906 4.355469 "/>
<path style=" stroke:none;fill-rule:nonzero;fill:rgb(100%,100%,100%);fill-opacity:0.313726;" d="M 29.777344 4.355469 C 28.6875 4.355469 27.804688 5.238281 27.800781 6.328125 L 27.800781 7.0625 C 27.804688 5.972656 28.6875 5.085938 29.777344 5.085938 L 35.730469 5.085938 C 36.824219 5.085938 37.707031 5.972656 37.707031 7.0625 L 37.707031 6.328125 C 37.707031 5.238281 36.824219 4.355469 35.730469 4.355469 Z M 23.824219 25.191406 C 22.523438 25.191406 21.660156 26.386719 21.882812 27.539062 C 22.046875 26.664062 22.800781 25.925781 23.824219 25.925781 L 27.800781 25.925781 L 27.800781 25.191406 Z M 37.707031 25.191406 L 37.707031 25.925781 L 41.683594 25.925781 C 42.707031 25.925781 43.460938 26.664062 43.628906 27.539062 C 43.851562 26.386719 42.988281 25.191406 41.683594 25.191406 Z M 37.707031 25.191406 "/>
<path style=" stroke:none;fill-rule:nonzero;fill:rgb(0%,0%,0%);fill-opacity:0.235294;" d="M 4.039062 18.734375 C 3.726562 19.921875 4.605469 21.203125 5.953125 21.203125 L 9.933594 21.203125 L 9.933594 20.222656 L 5.953125 20.222656 C 4.980469 20.222656 4.25 19.550781 4.039062 18.734375 Z M 25.730469 18.734375 C 25.519531 19.550781 24.789062 20.222656 23.816406 20.222656 L 19.835938 20.222656 L 19.835938 21.203125 L 23.816406 21.203125 C 25.164062 21.203125 26.042969 19.921875 25.730469 18.734375 Z M 9.933594 39.085938 L 9.933594 40.066406 C 9.933594 41.15625 10.816406 42.042969 11.90625 42.042969 L 17.859375 42.042969 C 18.953125 42.042969 19.835938 41.15625 19.835938 40.066406 L 19.835938 39.085938 C 19.835938 40.175781 18.953125 41.058594 17.859375 41.058594 L 11.90625 41.058594 C 10.816406 41.058594 9.933594 40.175781 9.933594 39.085938 Z M 9.933594 39.085938 "/>
<path style=" stroke:none;fill-rule:nonzero;fill:rgb(0%,0%,0%);fill-opacity:0.235294;" d="M 21.910156 26.679688 C 21.773438 27.199219 21.847656 27.78125 22.199219 28.292969 L 31.128906 41.191406 C 31.484375 41.703125 32.0625 42.019531 32.6875 42.039062 C 33.359375 42.0625 33.996094 41.742188 34.378906 41.191406 L 43.308594 28.292969 C 43.660156 27.78125 43.734375 27.199219 43.601562 26.679688 C 43.542969 26.894531 43.449219 27.109375 43.308594 27.308594 L 34.378906 40.210938 C 33.996094 40.761719 33.359375 41.082031 32.6875 41.058594 C 32.0625 41.035156 31.484375 40.722656 31.128906 40.210938 L 22.199219 27.308594 C 22.0625 27.109375 21.964844 26.894531 21.910156 26.679688 Z M 21.910156 26.679688 "/>
<path style="fill:none;stroke-width:3;stroke-linecap:round;stroke-linejoin:round;stroke:rgb(12.941177%,12.941177%,12.941177%);stroke-opacity:1;stroke-miterlimit:4;" d="M 158.026576 -168.546103 C 151.360546 -168.337789 145.236131 -164.963112 141.444826 -159.505299 L 46.162258 -21.893441 C 36.496515 -7.93644 46.49556 11.145071 63.493937 11.145071 L 105.948216 11.145071 L 105.948216 212.334192 C 105.948216 223.958082 115.363983 233.415512 126.987873 233.415512 L 190.48181 233.415512 C 202.147363 233.415512 211.56313 223.958082 211.56313 212.334192 L 211.56313 11.145071 L 254.017409 11.145071 C 270.974123 11.145071 280.973168 -7.93644 271.307425 -21.893441 L 176.06652 -159.505299 C 171.983576 -165.379738 165.192558 -168.796079 158.026576 -168.546103 Z M 158.026576 -168.546103 " transform="matrix(0.093759,0,0,0.093759,0,20.158175)"/>
<path style="fill:none;stroke-width:3;stroke-linecap:round;stroke-linejoin:round;stroke:rgb(12.941177%,12.941177%,12.941177%);stroke-opacity:1;stroke-miterlimit:4;" d="M 348.633374 233.373849 C 341.967344 233.165536 335.801266 229.790858 332.009961 224.333046 L 236.769056 86.76285 C 227.103313 72.764187 237.102358 53.682675 254.100735 53.682675 L 296.513351 53.682675 L 296.513351 -147.506445 C 296.555014 -159.130335 305.970781 -168.546103 317.594671 -168.546103 L 381.088608 -168.546103 C 392.754161 -168.546103 402.169928 -159.130335 402.169928 -147.506445 L 402.169928 53.682675 L 444.582544 53.682675 C 461.580921 53.682675 471.579966 72.764187 461.914223 86.76285 L 366.673318 224.333046 C 362.590374 230.207485 355.799356 233.623825 348.633374 233.373849 Z M 348.633374 233.373849 " transform="matrix(0.093759,0,0,0.093759,0,20.158175)"/>
<path style=" stroke:none;fill-rule:nonzero;fill:url(#radial4);" d="M 32.746094 42.050781 L 35.722656 42.050781 L 35.722656 40.066406 L 32.746094 40.066406 Z M 32.746094 42.050781 "/>
<path style=" stroke:none;fill-rule:nonzero;fill:url(#radial5);" d="M 32.746094 42.050781 L 29.769531 42.050781 L 29.769531 44.035156 L 32.746094 44.035156 Z M 32.746094 42.050781 "/>
<path style=" stroke:none;fill-rule:nonzero;fill:url(#radial6);" d="M 32.746094 42.050781 L 29.769531 42.050781 L 29.769531 40.066406 L 32.746094 40.066406 Z M 32.746094 42.050781 "/>
<path style=" stroke:none;fill-rule:nonzero;fill:url(#radial7);" d="M 32.746094 42.050781 L 35.722656 42.050781 L 35.722656 44.035156 L 32.746094 44.035156 Z M 32.746094 42.050781 "/>
</g>
</svg>
